public/images/icons/wiki/straal/merope.svg

<svg fill="none" height="300" stroke-width="15" width="300" xmlns="http://www.w3.org/2000/svg"><g stroke="#eee" stroke-linecap="round" stroke-linejoin="round"><path d="m105 90h90v120h-90z" fill="#eee" stroke-width="15"/><path d="m90 75a15-15 0 0 1 15-15h90a15 15 0 0 1 15 15m-120 0v150m120-150v150m-120 0a15 15 0 0 0 15 15m105-15a-15 15 0 0 1 -15 15m-90 0h90z" fill="none" stroke-width="5"/></g></svg>

<svg xmlns="http://www.w3.org/2000/svg" baseProfile="full" version="1.1" width="300px" height="300px" style="fill: none; width: 300px; height: 300px; stroke-width: 15;"><path d="M150,225 L150,225 L150,225 " style="stroke-width: 13; stroke-linecap: round; stroke-linejoin: round; stroke: rgb(238, 238, 238); fill: none;"></path><path d="M105,90 L105,90 L195,90 L195,210 L105,210 L105,90 " style="stroke-width: 15; stroke-linecap: round; stroke-linejoin: round; stroke: rgb(238, 238, 238); fill: rgb(238, 238, 238);"></path><path d="M90,75 A15,-15 0 0,1 105,60 L105,60 L195,60 A15,15 0 0,1 210,75 M90,75 L90,75 L90,225 M210,75 L210,75 L210,225 M90,225 A15,15 0 0,0 105,240 M210,225 A-15,15 0 0,1 195,240 M105,240 L105,240 L195,240 Z " style="stroke-width: 5; stroke-linecap: round; stroke-linejoin: round; stroke: rgb(238, 238, 238); fill: none;"></path></svg>
